src/view/frontend/web/svg/heroicons/outline/lock-closed.svg

<svg  viewBox="0 0 24 24" fill="none" stroke="currentColor" xmlns="http://www.w3.org/2000/svg">
<path d="M12 15V17M6 21H18C19.1046 21 20 20.1046 20 19V13C20 11.8954 19.1046 11 18 11H6C4.89543 11 4 11.8954 4 13V19C4 20.1046 4.89543 21 6 21ZM16 11V7C16 4.79086 14.2091 3 12 3C9.79086 3 8 4.79086 8 7V11H16Z"  stroke-width="2" stroke-linecap="round" stroke-linejoin="round"/>
</svg>

<svg xmlns="http://www.w3.org/2000/svg" fill="none" stroke="currentColor" viewBox="0 0 24 24"><path stroke-linecap="round" stroke-linejoin="round" stroke-width="2" d="M12 15v2m-6 4h12a2 2 0 0 0 2-2v-6a2 2 0 0 0-2-2H6a2 2 0 0 0-2 2v6a2 2 0 0 0 2 2Zm10-10V7a4 4 0 0 0-8 0v4h8Z"/></svg>
